logos/alphacx/alphacx.svg

<svg width="2001" height="609" fill="none" xmlns="http://www.w3.org/2000/svg"><path d="M1697.05 215.448a87.728 87.728 0 0 1 54.67 18.844l.84.667.77.597a89.446 89.446 0 0 1 12.6 12.633l215.11 215.178v-96.185l-143.87-144.084-32.5-32.494a157.419 157.419 0 0 0-72.25-41.127c-86.36-22.072-174.65 31.863-192.58 119.31a160.588 160.588 0 0 0 15.51 107.624 160.61 160.61 0 0 0 80.54 73.062 160.572 160.572 0 0 0 195.52-60.359l3.51-5.86 1.26-2.14 9.02-14.563-49.79-49.83-.25.316-22.98 35.091a88.933 88.933 0 0 1-33.46 31.054 88.97 88.97 0 0 1-88.19-2.633 88.889 88.889 0 0 1-31.54-32.994 89.009 89.009 0 0 1-11.04-44.291 89.086 89.086 0 0 1 12.37-43.935 89.065 89.065 0 0 1 32.53-32.022 89.02 89.02 0 0 1 44.13-11.683l.07-.176Z" fill="#004882"/><path d="m1922.71 265.208.11-.141L2001 141.406h-80.6l-46.96 74.288-.21.316 49.48 49.198Z" fill="#C20C38"/><path d="M18.107 217.138a135.773 135.773 0 0 1 49.619-56.146 129.626 129.626 0 0 1 70.182-19.615 120.872 120.872 0 0 1 57.97 13.475 99.52 99.52 0 0 1 38.601 35.336v-44.285h95.904v312.978h-51.76a44.288 44.288 0 0 1-44.144-44.32 103.772 103.772 0 0 1-38.986 35.336 120.505 120.505 0 0 1-58.076 13.475 127.132 127.132 0 0 1-69.55-19.931 137.318 137.318 0 0 1-49.62-56.637C6.082 362.31 0 333.98 0 301.813s6.036-60.392 18.107-84.675Zm196.3 28.599a67.342 67.342 0 0 0-97.027-.28c-13.171 13.662-19.757 32.447-19.757 56.356s6.633 42.893 19.897 56.953a66.673 66.673 0 0 0 97.027.28c13.264-13.825 19.908-32.716 19.932-56.672.023-23.955-6.668-42.834-20.072-56.637ZM453.627 0v458.886h-95.904V43.794L453.627 0ZM615.75 154.851a118.935 118.935 0 0 1 57.76-13.44 129.635 129.635 0 0 1 70.182 19.616 136.085 136.085 0 0 1 49.654 56.146c12.142 24.283 18.212 52.508 18.212 84.675 0 32.167-6.07 60.497-18.212 84.991a137.623 137.623 0 0 1-49.654 56.636 128.07 128.07 0 0 1-70.182 19.932 119.061 119.061 0 0 1-57.479-13.475 105.285 105.285 0 0 1-38.987-34.775v193.001h-95.939V145.903h95.939v44.285a104.238 104.238 0 0 1 38.706-35.337Zm78.429 90.605a65.876 65.876 0 0 0-49.128-20.493 64.756 64.756 0 0 0-48.531 20.774c-13.264 13.826-19.897 32.705-19.897 56.637 0 23.932 6.633 42.823 19.897 56.672a67.17 67.17 0 0 0 48.732 20.741 67.158 67.158 0 0 0 48.611-21.021c13.451-14.037 20.177-33.021 20.177-56.953 0-23.932-6.62-42.718-19.861-56.357ZM1117.76 178.157c21.74 23.745 32.6 56.368 32.6 97.87v182.859h-95.44V288.94c0-21.055-5.42-37.325-16.25-48.812-10.83-11.486-25.42-17.335-43.76-17.545-18.318 0-32.904 5.848-43.759 17.545-10.855 11.697-16.271 27.968-16.247 48.812v169.946h-95.939V43.794L934.904 0v187.948a102.639 102.639 0 0 1 40.004-33.091 127.337 127.337 0 0 1 56.632-12.317c35.8 0 64.54 11.872 86.22 35.617ZM1195.97 217.142a136.08 136.08 0 0 1 49.65-56.145 129.647 129.647 0 0 1 70.19-19.616 120.66 120.66 0 0 1 58.04 13.439 99.356 99.356 0 0 1 38.6 35.337v-44.25h95.83v312.978h-51.76a44.33 44.33 0 0 1-31.34-12.981 44.327 44.327 0 0 1-12.98-31.339 103.458 103.458 0 0 1-38.98 35.336 120.252 120.252 0 0 1-57.94 13.475 127.041 127.041 0 0 1-69.55-19.931 137.587 137.587 0 0 1-49.76-56.637c-12.14-24.494-18.21-52.824-18.21-84.991s6.07-60.392 18.21-84.675Zm196.51 28.599a67.261 67.261 0 0 0-22.11-15.327 67.292 67.292 0 0 0-26.34-5.451 67.373 67.373 0 0 0-26.38 5.298 67.298 67.298 0 0 0-22.2 15.2c-13.28 13.662-19.93 32.447-19.93 56.356s6.65 42.893 19.93 56.953a66.761 66.761 0 0 0 22.05 15.544 66.706 66.706 0 0 0 26.41 5.534 66.687 66.687 0 0 0 48.57-20.797c13.26-13.826 19.9-32.717 19.9-56.672 0-23.956-6.64-42.835-19.9-56.638Z" fill="#004882"/></svg>

<svg width="2001" height="609" viewBox="0 0 2001 609" fill="none" xmlns="http://www.w3.org/2000/svg">
<path d="M1697.05 215.448C1716.88 215.37 1736.15 222.013 1751.72 234.292L1752.56 234.959L1753.33 235.556C1757.94 239.335 1762.16 243.568 1765.93 248.189L1981.04 463.367V367.182L1837.17 223.098L1804.67 190.604C1784.71 170.668 1759.75 156.464 1732.42 149.477V149.477C1646.06 127.405 1557.77 181.34 1539.84 268.787C1532.34 305.374 1537.82 343.432 1555.35 376.411C1572.89 409.389 1601.36 435.225 1635.89 449.473C1670.41 463.721 1708.82 465.488 1744.51 454.472C1780.2 443.455 1810.93 420.343 1831.41 389.114L1834.92 383.254L1836.18 381.114L1845.2 366.551L1795.41 316.721L1795.16 317.037L1772.18 352.128C1763.92 365.212 1752.39 375.915 1738.72 383.182C1725.06 390.449 1709.74 394.028 1694.28 393.566C1678.81 393.105 1663.73 388.618 1650.53 380.549C1637.32 372.48 1626.45 361.108 1618.99 347.555C1611.52 334.002 1607.72 318.736 1607.95 303.264C1608.19 287.793 1612.45 272.649 1620.32 259.329C1628.2 246.009 1639.41 234.972 1652.85 227.307C1666.3 219.643 1681.5 215.616 1696.98 215.624L1697.05 215.448Z" fill="#004882"/>
<path d="M1922.71 265.208L1922.82 265.067L2001 141.406H1920.4L1873.44 215.694L1873.23 216.01L1922.71 265.208Z" fill="#C20C38"/>
<path d="M18.107 217.138C29.0525 194.139 46.2471 174.683 67.7259 160.992C88.7629 147.877 113.12 141.07 137.908 141.377C158.053 140.967 177.98 145.599 195.878 154.852C211.667 162.976 224.995 175.177 234.479 190.188V145.903H330.383V458.881H278.623C266.896 458.843 255.663 454.157 247.387 445.848C239.112 437.539 234.469 426.287 234.479 414.561C224.735 429.493 211.308 441.664 195.493 449.897C177.568 459.182 157.598 463.816 137.417 463.372C112.792 463.605 88.63 456.68 67.8662 443.441C46.3722 429.554 29.1864 409.937 18.2474 386.804C6.0825 362.31 0 333.98 0 301.813C0 269.646 6.03568 241.421 18.107 217.138ZM214.407 245.737C208.143 239.193 200.623 233.98 192.298 230.409C183.972 226.839 175.012 224.985 165.953 224.959C156.894 224.933 147.923 226.735 139.577 230.257C131.231 233.779 123.681 238.949 117.38 245.457C104.209 259.119 97.6234 277.904 97.6234 301.813C97.6234 325.722 104.256 344.706 117.52 358.766C123.734 365.395 131.237 370.685 139.569 374.309C147.901 377.934 156.887 379.817 165.973 379.844C175.059 379.87 184.055 378.039 192.408 374.462C200.761 370.886 208.295 365.64 214.547 359.046C227.811 345.221 234.455 326.33 234.479 302.374C234.502 278.419 227.811 259.54 214.407 245.737Z" fill="#004882"/>
<path d="M453.627 0V458.886H357.723V43.7937L453.627 0Z" fill="#004882"/>
<path d="M615.75 154.851C633.559 145.566 653.431 140.942 673.51 141.411C698.298 141.105 722.655 147.912 743.692 161.027C765.173 174.726 782.377 194.179 793.346 217.173C805.488 241.456 811.558 269.681 811.558 301.848C811.558 334.015 805.488 362.345 793.346 386.839C782.383 409.968 765.188 429.581 743.692 443.475C722.725 456.783 698.341 463.708 673.51 463.407C653.523 463.812 633.755 459.178 616.031 449.932C600.32 441.8 586.912 429.84 577.044 415.157V608.158H481.105V145.903H577.044V190.188C586.726 175.305 600.049 163.141 615.75 154.851V154.851ZM694.179 245.456C687.866 238.81 680.237 233.555 671.777 230.026C663.318 226.497 654.215 224.773 645.051 224.963C635.956 224.823 626.934 226.6 618.572 230.179C610.21 233.759 602.696 239.06 596.52 245.737C583.256 259.563 576.623 278.442 576.623 302.374C576.623 326.306 583.256 345.197 596.52 359.046C602.813 365.626 610.378 370.857 618.755 374.423C627.132 377.988 636.147 379.813 645.252 379.787C654.356 379.761 663.36 377.884 671.717 374.27C680.073 370.656 687.608 365.381 693.863 358.766C707.314 344.729 714.04 325.745 714.04 301.813C714.04 277.881 707.42 259.095 694.179 245.456Z" fill="#004882"/>
<path d="M1117.76 178.157C1139.5 201.902 1150.36 234.525 1150.36 276.027V458.886H1054.92V288.94C1054.92 267.885 1049.5 251.615 1038.67 240.128C1027.84 228.642 1013.25 222.793 994.91 222.583C976.592 222.583 962.006 228.431 951.151 240.128C940.296 251.825 934.88 268.096 934.904 288.94V458.886H838.965V43.7937L934.904 0V187.948C945.182 173.672 958.958 162.277 974.908 154.857C992.589 146.452 1011.97 142.238 1031.54 142.54C1067.34 142.54 1096.08 154.412 1117.76 178.157Z" fill="#004882"/>
<path d="M1195.97 217.142C1206.94 194.148 1224.14 174.695 1245.62 160.997C1266.66 147.881 1291.02 141.074 1315.81 141.381C1335.97 140.938 1355.93 145.559 1373.85 154.82C1389.64 162.935 1402.97 175.138 1412.45 190.157V145.907H1508.28V458.885H1456.52C1444.77 458.885 1433.49 454.215 1425.18 445.904C1416.87 437.592 1412.2 426.319 1412.2 414.565C1402.47 429.506 1389.04 441.678 1373.22 449.901C1355.34 459.174 1335.42 463.807 1315.28 463.376C1290.65 463.613 1266.49 456.688 1245.73 443.445C1224.19 429.565 1206.96 409.95 1195.97 386.808C1183.83 362.314 1177.76 333.984 1177.76 301.817C1177.76 269.65 1183.83 241.425 1195.97 217.142ZM1392.48 245.741C1386.22 239.197 1378.7 233.984 1370.37 230.414C1362.05 226.843 1353.09 224.99 1344.03 224.963C1334.97 224.937 1326 226.739 1317.65 230.261C1309.3 233.783 1301.75 238.953 1295.45 245.461C1282.17 259.123 1275.52 277.908 1275.52 301.817C1275.52 325.726 1282.17 344.71 1295.45 358.77C1301.67 365.4 1309.17 370.689 1317.5 374.314C1325.83 377.938 1334.82 379.821 1343.91 379.848C1352.99 379.874 1361.99 378.043 1370.34 374.466C1378.69 370.89 1386.23 365.644 1392.48 359.051C1405.74 345.225 1412.38 326.334 1412.38 302.379C1412.38 278.423 1405.74 259.544 1392.48 245.741Z" fill="#004882"/>
</svg>
